public/image/alphabet/f.svg

<?xml version="1.0" encoding="utf-8"?>
<!-- Generator: Adobe Illustrator 23.0.6, SVG Export Plug-In . SVG Version: 6.00 Build 0)  -->
<svg version="1.1" id="Layer_1" xmlns="http://www.w3.org/2000/svg" xmlns:xlink="http://www.w3.org/1999/xlink" x="0px" y="0px"
	 viewBox="0 0 792 612" style="enable-background:new 0 0 792 612;" xml:space="preserve">
<style type="text/css">
	.st0{fill:none;stroke:#171717;stroke-width:0.1;stroke-miterlimit:10;}
	.st1{fill:#171717;}
	.st2{fill:none;stroke:#FFFFFF;stroke-width:0.1;stroke-miterlimit:10;}
	.st3{fill:#FFFFFF;}
	.st4{fill:none;stroke:#C7C7C7;stroke-width:0.1;stroke-miterlimit:10;}
</style>
<g>
	<path id="path18" class="st0" d="M396.7,153.1c3.4-9.1,8.6-19,19.9-18.4c12.4,3.2,13.2,17.9,15.2,28.4c2.5,25.3,2.6,51.1-0.6,76.4
		c7.9-1.7,16.4-7.3,24.5-4c7.4,5.5,10.1,15.1,12.3,23.6c-5.2-5.9-9.5-12.5-14.5-18.4c-6.8-2.2-16.8-2.7-19.8,5.3
		c0.1,16.6,4.7,32.8,5.9,49.3c1.6-7,2.9-14,4.2-21.1c7.4-2.7,14.8-0.6,21.7,2.4c0.4-5.8,1.1-11.6,4.6-16.4c2.4,12-2.9,25.2,4.2,36.1
		c3.9,8.4,10.2,15.5,13.8,24c-2.3,18.5-7.8,36.5-11.8,54.6c-10.6,17.5-22.1,35.2-37.9,48.6c-7.7,12.7-9.5,27.6-12.7,41.7
		c-11.7,6.4-25.8,7-38.6,10.2c-21.2,4.9-38.5-11.6-56.2-20.3c3-15.6,8.2-31.2,8.8-47.1c-8.1-23.3-19.8-46.5-18.1-71.9
		c3.3-36.3,16.2-71.1,18.6-107.5c0.8-9.8,4.5-18.9,8.2-27.9c6-1.1,12-2.1,18-3.2c2-12.7-0.4-25.8,2.3-38.4
		C373,147.6,387.3,150.5,396.7,153.1z"/>
	<path id="path20" class="st1" d="M396.7,153.1c3.4-9.1,8.6-19,19.9-18.4c12.4,3.2,13.2,17.9,15.2,28.4c2.5,25.3,2.6,51.1-0.6,76.4
		c7.9-1.7,16.4-7.3,24.5-4c7.4,5.5,10.1,15.1,12.3,23.6c-5.2-5.9-9.5-12.5-14.5-18.4c-6.8-2.2-16.8-2.7-19.8,5.3
		c0.1,16.6,4.7,32.8,5.9,49.3c1.6-7,2.9-14,4.2-21.1c7.4-2.7,14.8-0.6,21.7,2.4c0.4-5.8,1.1-11.6,4.6-16.4c2.4,12-2.9,25.2,4.2,36.1
		c3.9,8.4,10.2,15.5,13.8,24c-2.3,18.5-7.8,36.5-11.8,54.6c-10.6,17.5-22.1,35.2-37.9,48.6c-7.7,12.7-9.5,27.6-12.7,41.7
		c-11.7,6.4-25.8,7-38.6,10.2c-21.2,4.9-38.5-11.6-56.2-20.3c3-15.6,8.2-31.2,8.8-47.1c-8.1-23.3-19.8-46.5-18.1-71.9
		c3.3-36.3,16.2-71.1,18.6-107.5c0.8-9.8,4.5-18.9,8.2-27.9c6-1.1,12-2.1,18-3.2c2-12.7-0.4-25.8,2.3-38.4
		C373,147.6,387.3,150.5,396.7,153.1z"/>
	<path id="path26" class="st2" d="M405.9,142.1c6.3-1.5,12.8-2.6,19.3-1c2.4,15,2.1,30.3,1.4,45.5c-7.6,0.6-15.2,1.3-22.8,1.9
		C403,173,401.9,157.3,405.9,142.1z"/>
	<path id="path28" class="st3" d="M405.9,142.1c6.3-1.5,12.8-2.6,19.3-1c2.4,15,2.1,30.3,1.4,45.5c-7.6,0.6-15.2,1.3-22.8,1.9
		C403,173,401.9,157.3,405.9,142.1z"/>
	<path id="path38" class="st2" d="M371.9,198.8c0.4-14.3-5.1-33,8.2-43.2c3.3,0.3,10,1,13.3,1.4c1.5,13-0.1,26-1.5,39
		C385.2,196.8,378.5,197.8,371.9,198.8z"/>
	<path id="path40" class="st3" d="M371.9,198.8c0.4-14.3-5.1-33,8.2-43.2c3.3,0.3,10,1,13.3,1.4c1.5,13-0.1,26-1.5,39
		C385.2,196.8,378.5,197.8,371.9,198.8z"/>
	<path id="path54" class="st2" d="M404.1,194.4c6.6-6.1,16.4-3.8,24.4-3c0.6,9.3,0.2,18.7-0.4,28c-9.8,1.3-19.7,2.1-29.6,2.5
		C398.6,212.6,398.9,202.6,404.1,194.4z"/>
	<path id="path56" class="st3" d="M404.1,194.4c6.6-6.1,16.4-3.8,24.4-3c0.6,9.3,0.2,18.7-0.4,28c-9.8,1.3-19.7,2.1-29.6,2.5
		C398.6,212.6,398.9,202.6,404.1,194.4z"/>
	<path id="path66" class="st2" d="M350.9,204.1c3.2-0.1,9.5-0.3,12.7-0.4c3.2,24.7,0.2,49.7-0.3,74.5c-8.2,5.8-17.2,10.2-26.6,13.4
		c3.4-14.9,6.4-29.8,7-45.1c3.9-2.8,7.9-5.5,11.8-8.3c-3.1-0.3-9.3-1-12.3-1.3C345.4,225.8,347.6,214.8,350.9,204.1z"/>
	<path id="path68" class="st3" d="M350.9,204.1c3.2-0.1,9.5-0.3,12.7-0.4c3.2,24.7,0.2,49.7-0.3,74.5c-8.2,5.8-17.2,10.2-26.6,13.4
		c3.4-14.9,6.4-29.8,7-45.1c3.9-2.8,7.9-5.5,11.8-8.3c-3.1-0.3-9.3-1-12.3-1.3C345.4,225.8,347.6,214.8,350.9,204.1z"/>
	<path id="path70" class="st2" d="M371.9,203.6c6.4,0,15.1-7.4,20-0.8c1.8,9.7,1.7,19.6,1.6,29.4c-8.2,1-16.4,2.1-24.6,3
		C369.9,224.6,371.1,214.2,371.9,203.6z"/>
	<path id="path72" class="st3" d="M371.9,203.6c6.4,0,15.1-7.4,20-0.8c1.8,9.7,1.7,19.6,1.6,29.4c-8.2,1-16.4,2.1-24.6,3
		C369.9,224.6,371.1,214.2,371.9,203.6z"/>
	<path id="path106" class="st2" d="M401.2,229.3c8.7-1.6,17.4-2.8,26.2-3.4c-1.2,12.7-2.9,25.4-4.4,38.1c-8,0.4-15.9,1-23.8,1.7
		C398.5,253.5,399.7,241.4,401.2,229.3z"/>
	<path id="path108" class="st3" d="M401.2,229.3c8.7-1.6,17.4-2.8,26.2-3.4c-1.2,12.7-2.9,25.4-4.4,38.1c-8,0.4-15.9,1-23.8,1.7
		C398.5,253.5,399.7,241.4,401.2,229.3z"/>
	<path id="path130" class="st2" d="M369.6,244.4c7.7-3.4,15.8-6.3,24.1-8.2c0.4,10.4,0.3,21.6-4.1,31.2c-5.8,2.9-11.9,5.2-17.9,7.6
		C370.6,264.9,369.9,254.6,369.6,244.4z"/>
	<path id="path132" class="st3" d="M369.6,244.4c7.7-3.4,15.8-6.3,24.1-8.2c0.4,10.4,0.3,21.6-4.1,31.2c-5.8,2.9-11.9,5.2-17.9,7.6
		C370.6,264.9,369.9,254.6,369.6,244.4z"/>
	<path id="path158" class="st0" d="M443.6,259c4.6-2.9,9.2-3,13.8-0.1C458,264.8,442.9,265.1,443.6,259z"/>
	<path id="path160" class="st1" d="M443.6,259c4.6-2.9,9.2-3,13.8-0.1C458,264.8,442.9,265.1,443.6,259z"/>
	<path id="path170" class="st0" d="M348.3,263.2c2.7-5.3,13.5-1.4,7.6,3.9C352.8,271.6,342.5,268.9,348.3,263.2z"/>
	<path id="path172" class="st1" d="M348.3,263.2c2.7-5.3,13.5-1.4,7.6,3.9C352.8,271.6,342.5,268.9,348.3,263.2z"/>
	<path id="path194" class="st2" d="M385.1,274.6c14.9-6.8,33.1-7.1,47.3,1.4c0.2,6.2,0.4,12.4,0.7,18.5c-25.9,7.7-50.3,22.2-78,22.2
		c-9,0.5-17,4.9-25.4,7.8c1.4-9.6-1.8-24.2,9.8-28.4C355.4,290.5,369.8,281.6,385.1,274.6z"/>
	<path id="path196" class="st3" d="M385.1,274.6c14.9-6.8,33.1-7.1,47.3,1.4c0.2,6.2,0.4,12.4,0.7,18.5c-25.9,7.7-50.3,22.2-78,22.2
		c-9,0.5-17,4.9-25.4,7.8c1.4-9.6-1.8-24.2,9.8-28.4C355.4,290.5,369.8,281.6,385.1,274.6z"/>
	<path id="path210" class="st4" d="M401.3,275.3c6.4,0.3,3.9,10.3-1.3,10.4C393.5,285.5,396,275.4,401.3,275.3z"/>
	<path id="path218" class="st2" d="M447.4,280.4c3.1-5.6,13.9-1.4,8.9,4.7C453.2,291.4,442.1,286.6,447.4,280.4z"/>
	<path id="path220" class="st3" d="M447.4,280.4c3.1-5.6,13.9-1.4,8.9,4.7C453.2,291.4,442.1,286.6,447.4,280.4z"/>
	<path id="path250" class="st2" d="M453.5,312.5c-5.1-9.9,3-16.7,10.6-21.7C474.8,300.9,463.2,309.5,453.5,312.5z"/>
	<path id="path252" class="st3" d="M453.5,312.5c-5.1-9.9,3-16.7,10.6-21.7C474.8,300.9,463.2,309.5,453.5,312.5z"/>
	<path id="path266" class="st2" d="M367.4,318.3c24.2-1.9,44.4-20.2,69.4-17.4c-3.8,9.8-16.9,9.3-25,14
		c-16.2,5.2-27.6,18.5-42.4,26.2c0,3.9,0,7.9,0.1,11.8c10.2-5.4,13.8-17.9,23.8-23.9c11.2-10,26.2-12.9,40.3-16.6
		c1.4,6.2,2.8,12.4,4.2,18.6c-12.5,5-26.7,9-36.3,18.8c-7.5,13.8-18.3,30.8-10.3,46.6c1.5,6.7,9.5,17.2,0.2,21.2
		c-15.6-0.8-37.2,3.2-45.5-13.7c-8.3-17.8-13.7-36.9-18.5-55.9c-3-9.5,2.8-19.7,10.9-24.6C347.5,319.4,357.7,319.8,367.4,318.3z"/>
	<path id="path268" class="st3" d="M367.4,318.3c24.2-1.9,44.4-20.2,69.4-17.4c-3.8,9.8-16.9,9.3-25,14
		c-16.2,5.2-27.6,18.5-42.4,26.2c0,3.9,0,7.9,0.1,11.8c10.2-5.4,13.8-17.9,23.8-23.9c11.2-10,26.2-12.9,40.3-16.6
		c1.4,6.2,2.8,12.4,4.2,18.6c-12.5,5-26.7,9-36.3,18.8c-7.5,13.8-18.3,30.8-10.3,46.6c1.5,6.7,9.5,17.2,0.2,21.2
		c-15.6-0.8-37.2,3.2-45.5-13.7c-8.3-17.8-13.7-36.9-18.5-55.9c-3-9.5,2.8-19.7,10.9-24.6C347.5,319.4,357.7,319.8,367.4,318.3z"/>
	<path id="path270" class="st2" d="M452.8,342.3c-10.4-11.2-17.1-26.9-8.6-41.3c3.4,5.8,6.8,11.7,10.4,17.5c6.1-3,12-6.5,17.8-10.1
		c3.5,5,11.9,8.7,11,15.5c-4.5,6.2-10.3,11.2-15.8,16.6c2.8,0.3,8.3,0.8,11.1,1.1c-3.1,11.2-2.4,24.3-10.2,33.7
		c-8.1,10.2-14.1,21.8-22.7,31.6c-10.8,12.9-32.6,9.1-43.2-1.9c-5.7-14.7-4.7-31.2-1.4-46.3c9.1-12.4,23.9-18.4,38.2-22.5
		c-0.9,10.9-4,24.5,6.4,32.2c-0.4-5-1-10-1.8-14.9C447,349.6,449.9,345.9,452.8,342.3z"/>
	<path id="path272" class="st3" d="M452.8,342.3c-10.4-11.2-17.1-26.9-8.6-41.3c3.4,5.8,6.8,11.7,10.4,17.5c6.1-3,12-6.5,17.8-10.1
		c3.5,5,11.9,8.7,11,15.5c-4.5,6.2-10.3,11.2-15.8,16.6c2.8,0.3,8.3,0.8,11.1,1.1c-3.1,11.2-2.4,24.3-10.2,33.7
		c-8.1,10.2-14.1,21.8-22.7,31.6c-10.8,12.9-32.6,9.1-43.2-1.9c-5.7-14.7-4.7-31.2-1.4-46.3c9.1-12.4,23.9-18.4,38.2-22.5
		c-0.9,10.9-4,24.5,6.4,32.2c-0.4-5-1-10-1.8-14.9C447,349.6,449.9,345.9,452.8,342.3z"/>
	<path id="path418" class="st2" d="M396.9,414.3c5.3,6.4,11.4,12.1,18.3,16.9c-2.9,10.7-5.1,21.7-7,32.6c-4.1,1.5-8.2,3-12.2,4.5
		c-2.6-3-5.2-6.1-7.8-9.1c0.8,6.9-2,10.5-8.4,10.7c1.8-8.6,3.7-17.2,6-25.6c-0.1,2.8-0.3,8.4-0.4,11.3l6.2-0.4
		C392.6,441.5,394.7,427.9,396.9,414.3z"/>
	<path id="path420" class="st3" d="M396.9,414.3c5.3,6.4,11.4,12.1,18.3,16.9c-2.9,10.7-5.1,21.7-7,32.6c-4.1,1.5-8.2,3-12.2,4.5
		c-2.6-3-5.2-6.1-7.8-9.1c0.8,6.9-2,10.5-8.4,10.7c1.8-8.6,3.7-17.2,6-25.6c-0.1,2.8-0.3,8.4-0.4,11.3l6.2-0.4
		C392.6,441.5,394.7,427.9,396.9,414.3z"/>
	<path id="path434" class="st2" d="M346.7,417.8c7.2,12.5,20.7,11.9,33.3,10c-2.5,12.6-4.9,25.2-7.3,37.8
		c-11.3-4.3-24.1-7.9-32.4-16.8C341.4,438.3,343.7,427.9,346.7,417.8z"/>
	<path id="path436" class="st3" d="M346.7,417.8c7.2,12.5,20.7,11.9,33.3,10c-2.5,12.6-4.9,25.2-7.3,37.8
		c-11.3-4.3-24.1-7.9-32.4-16.8C341.4,438.3,343.7,427.9,346.7,417.8z"/>
</g>
</svg>

<svg width="792" height="612" viewBox="0 0 792 612" fill="none" xmlns="http://www.w3.org/2000/svg">
<g clip-path="url(#clip0_3_24)">
<g clip-path="url(#clip1_3_24)">
<path d="M432.5 244.5L435.5 240L444 236H453L464 247.5L467 257L468.5 273.5L464 278L457.5 274.5L449.5 273.5L438 296.5V292.5L436.5 274.5C435.167 268.333 432.5 253.7 432.5 244.5Z" fill="white"/>
<path d="M396.7 153.1C400.1 144 405.3 134.1 416.6 134.7C429 137.9 429.8 152.6 431.8 163.1C434.3 188.4 434.4 214.2 431.2 239.5C439.1 237.8 447.6 232.2 455.7 235.5C463.1 241 465.8 250.6 468 259.1C462.8 253.2 458.5 246.6 453.5 240.7C446.7 238.5 436.7 238 433.7 246C433.8 262.6 438.4 278.8 439.6 295.3C441.2 288.3 442.5 281.3 443.8 274.2C451.2 271.5 458.6 273.6 465.5 276.6C465.9 270.8 466.6 265 470.1 260.2C472.5 272.2 467.2 285.4 474.3 296.3C478.2 304.7 484.5 311.8 488.1 320.3C485.8 338.8 480.3 356.8 476.3 374.9C465.7 392.4 454.2 410.1 438.4 423.5C430.7 436.2 428.9 451.1 425.7 465.2C414 471.6 399.9 472.2 387.1 475.4C365.9 480.3 348.6 463.8 330.9 455.1C333.9 439.5 339.1 423.9 339.7 408C331.6 384.7 319.9 361.5 321.6 336.1C324.9 299.8 337.8 265 340.2 228.6C341 218.8 344.7 209.7 348.4 200.7C354.4 199.6 360.4 198.6 366.4 197.5C368.4 184.8 366 171.7 368.7 159.1C373 147.6 387.3 150.5 396.7 153.1Z" stroke="#171717" stroke-width="0.1" stroke-miterlimit="10"/>
<path d="M396.7 153.1C400.1 144 405.3 134.1 416.6 134.7C429 137.9 429.8 152.6 431.8 163.1C434.3 188.4 434.4 214.2 431.2 239.5C439.1 237.8 447.6 232.2 455.7 235.5C463.1 241 465.8 250.6 468 259.1C462.8 253.2 458.5 246.6 453.5 240.7C446.7 238.5 436.7 238 433.7 246C433.8 262.6 438.4 278.8 439.6 295.3C441.2 288.3 442.5 281.3 443.8 274.2C451.2 271.5 458.6 273.6 465.5 276.6C465.9 270.8 466.6 265 470.1 260.2C472.5 272.2 467.2 285.4 474.3 296.3C478.2 304.7 484.5 311.8 488.1 320.3C485.8 338.8 480.3 356.8 476.3 374.9C465.7 392.4 454.2 410.1 438.4 423.5C430.7 436.2 428.9 451.1 425.7 465.2C414 471.6 399.9 472.2 387.1 475.4C365.9 480.3 348.6 463.8 330.9 455.1C333.9 439.5 339.1 423.9 339.7 408C331.6 384.7 319.9 361.5 321.6 336.1C324.9 299.8 337.8 265 340.2 228.6C341 218.8 344.7 209.7 348.4 200.7C354.4 199.6 360.4 198.6 366.4 197.5C368.4 184.8 366 171.7 368.7 159.1C373 147.6 387.3 150.5 396.7 153.1Z" fill="#171717"/>
<path d="M405.9 142.1C412.2 140.6 418.7 139.5 425.2 141.1C427.6 156.1 427.3 171.4 426.6 186.6C419 187.2 411.4 187.9 403.8 188.5C403 173 401.9 157.3 405.9 142.1Z" stroke="white" stroke-width="0.1" stroke-miterlimit="10"/>
<path d="M405.9 142.1C412.2 140.6 418.7 139.5 425.2 141.1C427.6 156.1 427.3 171.4 426.6 186.6C419 187.2 411.4 187.9 403.8 188.5C403 173 401.9 157.3 405.9 142.1Z" fill="white"/>
<path d="M371.9 198.8C372.3 184.5 366.8 165.8 380.1 155.6C383.4 155.9 390.1 156.6 393.4 157C394.9 170 393.3 183 391.9 196C385.2 196.8 378.5 197.8 371.9 198.8Z" stroke="white" stroke-width="0.1" stroke-miterlimit="10"/>
<path d="M371.9 198.8C372.3 184.5 366.8 165.8 380.1 155.6C383.4 155.9 390.1 156.6 393.4 157C394.9 170 393.3 183 391.9 196C385.2 196.8 378.5 197.8 371.9 198.8Z" fill="white"/>
<path d="M404.1 194.4C410.7 188.3 420.5 190.6 428.5 191.4C429.1 200.7 428.7 210.1 428.1 219.4C418.3 220.7 408.4 221.5 398.5 221.9C398.6 212.6 398.9 202.6 404.1 194.4Z" stroke="white" stroke-width="0.1" stroke-miterlimit="10"/>
<path d="M404.1 194.4C410.7 188.3 420.5 190.6 428.5 191.4C429.1 200.7 428.7 210.1 428.1 219.4C418.3 220.7 408.4 221.5 398.5 221.9C398.6 212.6 398.9 202.6 404.1 194.4Z" fill="white"/>
<path d="M350.9 204.1C354.1 204 360.4 203.8 363.6 203.7C366.8 228.4 363.8 253.4 363.3 278.2C355.1 284 346.1 288.4 336.7 291.6C340.1 276.7 343.1 261.8 343.7 246.5C347.6 243.7 351.6 241 355.5 238.2C352.4 237.9 346.2 237.2 343.2 236.9C345.4 225.8 347.6 214.8 350.9 204.1Z" stroke="white" stroke-width="0.1" stroke-miterlimit="10"/>
<path d="M350.9 204.1C354.1 204 360.4 203.8 363.6 203.7C366.8 228.4 363.8 253.4 363.3 278.2C355.1 284 346.1 288.4 336.7 291.6C340.1 276.7 343.1 261.8 343.7 246.5C347.6 243.7 351.6 241 355.5 238.2C352.4 237.9 346.2 237.2 343.2 236.9C345.4 225.8 347.6 214.8 350.9 204.1Z" fill="white"/>
<path d="M371.9 203.6C378.3 203.6 387 196.2 391.9 202.8C393.7 212.5 393.6 222.4 393.5 232.2C385.3 233.2 377.1 234.3 368.9 235.2C369.9 224.6 371.1 214.2 371.9 203.6Z" stroke="white" stroke-width="0.1" stroke-miterlimit="10"/>
<path d="M371.9 203.6C378.3 203.6 387 196.2 391.9 202.8C393.7 212.5 393.6 222.4 393.5 232.2C385.3 233.2 377.1 234.3 368.9 235.2C369.9 224.6 371.1 214.2 371.9 203.6Z" fill="white"/>
<path d="M401.2 229.3C409.9 227.7 418.6 226.5 427.4 225.9C426.2 238.6 424.5 251.3 423 264C415 264.4 407.1 265 399.2 265.7C398.5 253.5 399.7 241.4 401.2 229.3Z" stroke="white" stroke-width="0.1" stroke-miterlimit="10"/>
<path d="M401.2 229.3C409.9 227.7 418.6 226.5 427.4 225.9C426.2 238.6 424.5 251.3 423 264C415 264.4 407.1 265 399.2 265.7C398.5 253.5 399.7 241.4 401.2 229.3Z" fill="white"/>
<path d="M369.6 244.4C377.3 241 385.4 238.1 393.7 236.2C394.1 246.6 394 257.8 389.6 267.4C383.8 270.3 377.7 272.6 371.7 275C370.6 264.9 369.9 254.6 369.6 244.4Z" stroke="white" stroke-width="0.1" stroke-miterlimit="10"/>
<path d="M369.6 244.4C377.3 241 385.4 238.1 393.7 236.2C394.1 246.6 394 257.8 389.6 267.4C383.8 270.3 377.7 272.6 371.7 275C370.6 264.9 369.9 254.6 369.6 244.4Z" fill="white"/>
<path d="M443.6 259C448.2 256.1 452.8 256 457.4 258.9C458 264.8 442.9 265.1 443.6 259Z" stroke="#171717" stroke-width="0.1" stroke-miterlimit="10"/>
<path d="M443.6 259C448.2 256.1 452.8 256 457.4 258.9C458 264.8 442.9 265.1 443.6 259Z" fill="#171717"/>
<path d="M348.3 263.2C351 257.9 361.8 261.8 355.9 267.1C352.8 271.6 342.5 268.9 348.3 263.2Z" stroke="#171717" stroke-width="0.1" stroke-miterlimit="10"/>
<path d="M348.3 263.2C351 257.9 361.8 261.8 355.9 267.1C352.8 271.6 342.5 268.9 348.3 263.2Z" fill="#171717"/>
<path d="M385.1 274.6C400 267.8 418.2 267.5 432.4 276C432.6 282.2 432.8 288.4 433.1 294.5C407.2 302.2 382.8 316.7 355.1 316.7C346.1 317.2 338.1 321.6 329.7 324.5C331.1 314.9 327.9 300.3 339.5 296.1C355.4 290.5 369.8 281.6 385.1 274.6Z" stroke="white" stroke-width="0.1" stroke-miterlimit="10"/>
<path d="M385.1 274.6C400 267.8 418.2 267.5 432.4 276C432.6 282.2 432.8 288.4 433.1 294.5C407.2 302.2 382.8 316.7 355.1 316.7C346.1 317.2 338.1 321.6 329.7 324.5C331.1 314.9 327.9 300.3 339.5 296.1C355.4 290.5 369.8 281.6 385.1 274.6Z" fill="white"/>
<path d="M401.3 275.3C407.7 275.6 405.2 285.6 400 285.7C393.5 285.5 396 275.4 401.3 275.3Z" stroke="#C7C7C7" stroke-width="0.1" stroke-miterlimit="10"/>
<path d="M447.4 280.4C450.5 274.8 461.3 279 456.3 285.1C453.2 291.4 442.1 286.6 447.4 280.4Z" stroke="white" stroke-width="0.1" stroke-miterlimit="10"/>
<path d="M447.4 280.4C450.5 274.8 461.3 279 456.3 285.1C453.2 291.4 442.1 286.6 447.4 280.4Z" fill="white"/>
<path d="M453.5 312.5C448.4 302.6 456.5 295.8 464.1 290.8C474.8 300.9 463.2 309.5 453.5 312.5Z" stroke="white" stroke-width="0.1" stroke-miterlimit="10"/>
<path d="M453.5 312.5C448.4 302.6 456.5 295.8 464.1 290.8C474.8 300.9 463.2 309.5 453.5 312.5Z" fill="white"/>
<path d="M367.4 318.3C391.6 316.4 411.8 298.1 436.8 300.9C433 310.7 419.9 310.2 411.8 314.9C395.6 320.1 384.2 333.4 369.4 341.1C369.4 345 369.4 349 369.5 352.9C379.7 347.5 383.3 335 393.3 329C404.5 319 419.5 316.1 433.6 312.4C435 318.6 436.4 324.8 437.8 331C425.3 336 411.1 340 401.5 349.8C394 363.6 383.2 380.6 391.2 396.4C392.7 403.1 400.7 413.6 391.4 417.6C375.8 416.8 354.2 420.8 345.9 403.9C337.6 386.1 332.2 367 327.4 348C324.4 338.5 330.2 328.3 338.3 323.4C347.5 319.4 357.7 319.8 367.4 318.3Z" stroke="white" stroke-width="0.1" stroke-miterlimit="10"/>
<path d="M367.4 318.3C391.6 316.4 411.8 298.1 436.8 300.9C433 310.7 419.9 310.2 411.8 314.9C395.6 320.1 384.2 333.4 369.4 341.1C369.4 345 369.4 349 369.5 352.9C379.7 347.5 383.3 335 393.3 329C404.5 319 419.5 316.1 433.6 312.4C435 318.6 436.4 324.8 437.8 331C425.3 336 411.1 340 401.5 349.8C394 363.6 383.2 380.6 391.2 396.4C392.7 403.1 400.7 413.6 391.4 417.6C375.8 416.8 354.2 420.8 345.9 403.9C337.6 386.1 332.2 367 327.4 348C324.4 338.5 330.2 328.3 338.3 323.4C347.5 319.4 357.7 319.8 367.4 318.3Z" fill="white"/>
<path d="M452.8 342.3C442.4 331.1 435.7 315.4 444.2 301C447.6 306.8 451 312.7 454.6 318.5C460.7 315.5 466.6 312 472.4 308.4C475.9 313.4 484.3 317.1 483.4 323.9C478.9 330.1 473.1 335.1 467.6 340.5C470.4 340.8 475.9 341.3 478.7 341.6C475.6 352.8 476.3 365.9 468.5 375.3C460.4 385.5 454.4 397.1 445.8 406.9C435 419.8 413.2 416 402.6 405C396.9 390.3 397.9 373.8 401.2 358.7C410.3 346.3 425.1 340.3 439.4 336.2C438.5 347.1 435.4 360.7 445.8 368.4C445.4 363.4 444.8 358.4 444 353.5C447 349.6 449.9 345.9 452.8 342.3Z" stroke="white" stroke-width="0.1" stroke-miterlimit="10"/>
<path d="M452.8 342.3C442.4 331.1 435.7 315.4 444.2 301C447.6 306.8 451 312.7 454.6 318.5C460.7 315.5 466.6 312 472.4 308.4C475.9 313.4 484.3 317.1 483.4 323.9C478.9 330.1 473.1 335.1 467.6 340.5C470.4 340.8 475.9 341.3 478.7 341.6C475.6 352.8 476.3 365.9 468.5 375.3C460.4 385.5 454.4 397.1 445.8 406.9C435 419.8 413.2 416 402.6 405C396.9 390.3 397.9 373.8 401.2 358.7C410.3 346.3 425.1 340.3 439.4 336.2C438.5 347.1 435.4 360.7 445.8 368.4C445.4 363.4 444.8 358.4 444 353.5C447 349.6 449.9 345.9 452.8 342.3Z" fill="white"/>
<path d="M396.9 414.3C402.2 420.7 408.3 426.4 415.2 431.2C412.3 441.9 410.1 452.9 408.2 463.8C404.1 465.3 400 466.8 396 468.3C393.4 465.3 390.8 462.2 388.2 459.2C389 466.1 386.2 469.7 379.8 469.9C381.6 461.3 383.5 452.7 385.8 444.3C385.7 447.1 385.5 452.7 385.4 455.6L391.6 455.2C392.6 441.5 394.7 427.9 396.9 414.3Z" stroke="white" stroke-width="0.1" stroke-miterlimit="10"/>
<path d="M396.9 414.3C402.2 420.7 408.3 426.4 415.2 431.2C412.3 441.9 410.1 452.9 408.2 463.8C404.1 465.3 400 466.8 396 468.3C393.4 465.3 390.8 462.2 388.2 459.2C389 466.1 386.2 469.7 379.8 469.9C381.6 461.3 383.5 452.7 385.8 444.3C385.7 447.1 385.5 452.7 385.4 455.6L391.6 455.2C392.6 441.5 394.7 427.9 396.9 414.3Z" fill="white"/>
<path d="M346.7 417.8C353.9 430.3 367.4 429.7 380 427.8C377.5 440.4 375.1 453 372.7 465.6C361.4 461.3 348.6 457.7 340.3 448.8C341.4 438.3 343.7 427.9 346.7 417.8Z" stroke="white" stroke-width="0.1" stroke-miterlimit="10"/>
<path d="M346.7 417.8C353.9 430.3 367.4 429.7 380 427.8C377.5 440.4 375.1 453 372.7 465.6C361.4 461.3 348.6 457.7 340.3 448.8C341.4 438.3 343.7 427.9 346.7 417.8Z" fill="white"/>
</g>
</g>
<defs>
<clipPath id="clip0_3_24">
<rect width="792" height="612" fill="white"/>
</clipPath>
<clipPath id="clip1_3_24">
<rect width="792" height="612" fill="white"/>
</clipPath>
</defs>
</svg>
